X:1
T:I Am Satisfied
T:I Am Satisfied
T:John Millard Harris, 1906
T:Franklin Edson Belden, 1903
T:Public Domain Courtesy of the Cyber Hymnal™
C:John Millard Harris, 1906
Z:Public Domain
Z:Courtesy of the Cyber Hymnal™
%%score 1 ( 2 3 )
L:1/8
Q:1/4=95
M:6/8
K:Ab
V:1 treble 
V:2 bass 
V:3 bass 
V:1
 [CE] | [CA]2 [EB] [Ec]2 [FA] | [DF]2 [DG] [CA]2 [DF] | [CE]2 [CE] [EA]2 [Ec] | [EB]3- [EB]2 [DE] | %5
w: 1.~If|He, my Lord, is|with me still And|I in Him a-|bide, * If|
w: 2.~Thro’|pas- tures green, or|sha- dows deep, With|Him my con- stant|guide, * If|
w: 3.~And|tho’ at times the|things I ask, In|love are oft de-|nied, * I|
w: 4.~From|Him my soul, in|life or death, No|power shall e’er di-|vide; * I|
 [CA]2 [EB] [Ec]2 [FA] | [DF]2 [CG] !fermata![CA]2 [DF] | [CE]2 [Ec] [Ec]2 [DB] | [CA]3- [CA]2 z || %9
w: He but whis- per|to my heart, Then|I am sa- tis-|fied. *|
w: step by step He|leads me on, Then|I am sa- tis-|fied. *|
w: know He gives me|what is best, And|I am sa- tis-|fied. *|
w: read the prom- ise|in His Word, And|I am sa- tis-|fied. *|
"^Refrain" [Ae]2 [Ac] [Ae]2 [Ac] | [FB]<[FA][DF] [FA]2 [DF] | [CE]2 [CE] [EA][EB][Ec] | %12
w: |||
w: Sa- tis- fied in|Je- sus, my Lord, He|knows my sor- rows and|
w: |||
w: |||
 [EB]3- [EB]2 [Ac] | [Ae]2 [Ac] [EA]2 [Ec] | [FB]<[FA][DF] !fermata![FA]2 [DF] | %15
w: |||
w: care; * I’ll|praise His name wher-|ev- er I go, And|
w: |||
w: |||
 [CE]2 [CA] [Ec][EA][EB] | [EA]3- [EA]2 |] %17
w: ||
w: seek His bless- ing in|prayer. *|
w: ||
w: ||
V:2
 [A,,A,] | [A,,E,]2 [E,G,] A,2 [D,F,] | [E,A,]2 [E,B,] [F,A,]2 [D,A,] | %3
 [A,,A,]2 [A,,A,] [C,A,]2 [A,,A,] | [A,,A,]3- [A,,A,]2 [E,G,] | [A,,E,]2 [E,G,] A,2 [D,F,] | %6
 [E,A,]2 [E,B,] !fermata![F,A,]2 [D,A,] | [E,A,]2 [E,A,] [E,G,]2 [E,G,] | [A,,A,]3- [A,,A,]2 z || %9
 [A,C]2 [A,E] [A,C]2 [A,E] | [D,D]<[D,D][D,A,] [D,D]2 [D,A,] | %11
 [A,,A,]2 [A,,A,] [C,A,][B,,G,][A,,A,] | [E,G,]3- [E,G,]2 A, | [A,C]2 [A,E] [A,C]2 [A,,A,] | %14
 [D,A,]<[D,A,][D,A,] !fermata![D,D]2 [D,A,] | [E,A,]2 [E,A,] [E,A,][E,C][E,D] | [A,,C]3- [A,,C]2 |] %17
V:3
 x | x3 A,2 x | x6 | x6 | x6 | x3 A,2 x | x6 | x6 | x6 || x6 | x6 | x6 | x5 A, | x6 | x6 | x6 | %16
 x5 |] %17

